X: 40
T: Happy Birthday
P: piffero primo a0053
O: Dan Moylan
%R: air, waltz
F: http://ancients.sudburymuster.org/mus/sng/pdf/happybdC0.pdf
Z: 2020 John Chambers <jc:trillian.mit.edu>
M: 3/4
L: 1/8
K: D
C2 |\
D2 C2 F2 | (3EGA A2 C2 | D2 F2 G2 | (3FDE F2 C2 |\
F2 D2 F2 | (3GEG HD2 EG | (3AFA (3FDF (3GEG | (3FDE HF2 |]


